X: 116
T: Cantantibus organis – Thema con variazioni
C: Franciszek Walczyński
%%abc-version 2.0
%%abcx-abcm2ps-target-version 5.9.1 (29 Sep 2008)
%%abc-creator hum2abc beta
%%abcx-conversion-date 2021/10/04 07:38:42
%%abc-edited-by Andrzej Borzym
%%abc-edited-by Krzysztof Stępień
%%abcx-initial-encoding-date 2021-07-27
%%humdrum-veritas 3031309999
%%humdrum-veritas-data 571385778
%%linebreak <none>
%%barnumbers 0
L: 1/4
M: C
N: Derived from pl-kozmzk--mzk-m-346--018_walczynski-franciszek--cantantibus-organis-thema-con-variazioni.krn
Q: "Adagio."
%%staves {1 2}
V: 1 clef=treble
V: 2 clef=bass
K: D
[V:1] z4 | 
[V:2] D,2D,D, & D,,2D,,D,, | 
[V:1] z4 | 
[V:2] E,2D,2 & E,,2D,,2 | 
[V:1] z4 | 
[V:2] F,>G,A,F, & F,,>G,,A,,F,, | 
[V:1] z4 | 
[V:2] D3z & D,3z | 
[V:1] [a2f2][af][af] & d2dd | 
[V:2] z4 | 
[V:1] [b2g2][a2f2] & G/A/B/c/d2 | 
[V:2] z4[K:clef=treble] | 
[V:1] d'bag & fgfe/d/ | 
[V:2] d3B & BGDE | 
[V:1] !fermata!f4 & cd/B/!fermata!c2 | 
[V:2] ^AB/^G/!fermata!A2[K:clef=bass] & !fermata!F4 | 
[V:1] z4 | 
[V:2] F,2F,F, & F,,2F,,F,, | 
[V:1] z4 | 
[V:2] G,2F,2 & G,,2F,,2 | 
[V:1] z4 | 
[V:2] B,>CDB, & B,,>C,D,B,, | 
[V:1] z4 | 
[V:2] G3z & G,3z | 
[V:1] [d2B2][dB][dB] & G2GG | 
[V:2] z4 | 
[V:1] [e2=c2][d2B2] & =C/D/E/F/G2 | 
[V:2] z4[K:clef=treble] | 
[V:1] gedc & B=cBA/G/ | 
[V:2] G3E & E=CG,A, | 
[V:1] B3B & F2^G2 | 
[V:2] ^D2E2[K:clef=bass] & B,2E,2 | 
[V:1] ^c2d2 & A4- | 
[V:2] [A,A,,][=G,=G,,][F,F,,][=F,=F,,] | 
[V:1] [cAE][B^GD][AEC][^GDB,] | 
[V:2] [E,3E,,3][E,E,,] | 
[V:1] A2A2- & [E2C2][=FD][DB,] | 
[V:2] A,4 & A,,4- | 
[V:1] A3z & [E3C3]x | 
[V:2] A,3z & A,,3x | 
[V:1] z4 | 
[V:2] A,2A,A, & A,,2A,,A,, | 
[V:1] z4 | 
[V:2] B,2A,2 & B,,2A,,2 | 
[V:1] z4 | 
[V:2] C>DEC & C,>D,E,C, | 
[V:1] z4 | 
[V:2] A3z & A,3z | 
[V:1] z4 | 
[V:2] z4 & A,,2A,A,- | 
[V:1] x2A2- & _B2AG | 
[V:2] G2=FE & A,4- | 
[V:1] A4- & =F2ED | 
[V:2] D2CB, & A,4- | 
[V:1] A4- & E2=FD | 
[V:2] C2DB, & A,4- | 
[V:1] A4- & EG=FD | 
[V:2] CEDB, & A,4 | 
[V:1] A4- & E2=F2 | 
[V:2] C2D2 & A,,2=F,,D,, | 
[V:1] A2z2 & [E2^C2]x2 | 
[V:2] A,2z2 & A,,2A,,A,, | 
[V:1] !fermata!z4 & z4 | 
[V:2] !fermata!z4 & !fermata!A,,4 | 
[V:1] [M:C|]A2AA & F2FF [I:setbarnb 34]| 
[V:2] [M:C|]D2DD & D,2D,D, | 
[V:1] B2A2 & G2F2 | 
[V:2] D2D2 & G,,B,,D,2 | 
[V:1] BAGB & F2EF | 
[V:2] B,2B,/C/D & ^D,2E,=D, | 
[V:1] AGF2 & E2D2 | 
[V:2] EA,-A,2 & C,2D,2 | 
[V:1] A2dc & F2F/^G/A- | 
[V:2] D2DE & D,C,B,,A,, | 
[V:1] B2A2 & A^GF2 | 
[V:2] FE/D/C2 & D,E,F,2 | 
[V:1] BAGB & D^DEF | 
[V:2] B,3D & G,F,E,B,, | 
[V:1] AGF2 & E2D2 | 
[V:2] A,4 & C,2D,2 | 
[V:1] A2BG & D2^DE- | 
[V:2] F,2-F,/B,/-B, & D,=C,B,,E,/D,/ | 
[V:1] A2!fermata!D2 & E/=D/CD2 ||  
[V:2] A,>G,F,2 & ^C,/B,,/A,,!fermata!D,2 ||  
[V:1] A2AA | 
[V:2] z/ .D,/.F,/.G,/ .A,/.F,/.E,/.D,/ | 
[V:1] B2A2 | 
[V:2] G,/A,/.B,/.C/ .D/.E/.F/.D/ | 
[V:1] BAGB | 
[V:2] G/F/.^D/.F/ .E/.C/.=D/.B,/ | 
[V:1] AGF/E/F/G/ | 
[V:2] C/A,/.B,/.C/ .D/C/D/E/ | 
[V:1] A2dc | 
[V:2] F/G/.F/.E/ .D/.F/.A/.A,/ | 
[V:1] B2A2 | 
[V:2] G,/A,/.B,/.C/ .D/.E/.F/.D/ | 
[V:1] BAGB | 
[V:2] ^D/B,/.C/.D/ .E/.=D/.C/.B,/ | 
[V:1] AGF2 | 
[V:2] A,/^A,/.B,/.C/ D/E/.D/.C/ | 
[V:1] A2BG | 
[V:2] =C/A,/.G,/.F,/ .G,/.^D,/.E,/.=D,/ | 
[V:1] A2!fermata!D2 | 
[V:2] C,/A,,/.B,,/.C,/!fermata!D,2 | 
[V:1] [M:C]A2AA & F2FE [I:setbarnb 54]| 
[V:2] [M:C]D,A,DC | 
[V:1] B2A2 & D/C/D/E/FE | 
[V:2] B,G,D,C, | 
[V:1] !accent!B>AGB & ^DE/F/E2- | 
[V:2] B,,C,/^D,/E,=D, | 
[V:1] AGF2 & E/A,/B,/C/D2 | 
[V:2] C,E,/^A,,/ B,,/C,/D,/E,/ | 
[V:1] A2dc & DEF2 | 
[V:2] F,G,B,A, | 
[V:1] B2A2 & G2FE | 
[V:2] G,/A,/B,/C/DC | 
[V:1] B>AGB & ^D2E2- | 
[V:2] B,B,,E,D, | 
[V:1] A>GF2 & E/C/D/E/D2 | 
[V:2] C,/A,,/B,,/C,/ D,/B,,/A,,/G,,/ | 
[V:1] A2BG & D4 | 
[V:2] F,,F,G,E, | 
[V:1] A2!fermata!D2 & C2D2 | 
[V:2] A,/G,/F,/E,/!fermata!D,2 | 
[V:1]  [K:F] [M:C]A2AA & F2GF [I:setbarnb 64]| 
[V:2]  [K:F] [M:C]zDED & D,2^C,D, | 
[V:1] B2A2 & GFE2 | 
[V:2] D2^C2 & G,2A,2 | 
[V:1] BAGB & D4 | 
[V:2] z4 & G,A,B,G, | 
[V:1] A>GFE & ^CD/E/DC | 
[V:2] z4 & A,/A,,/=B,,/^C,/ D,/^G,,/A,,/=G,,/ | 
[V:1] A2d3/c/ & D/F/E/D/D2- | 
[V:2] A,2-A,/C/B,/A,/ & F,,2^F,,2 | 
[V:1] B2A2 & D3_E | 
[V:2] G,2F,2 & G,,/A,,/B,,/C,/D,C, | 
[V:1] BAGB & DC2D | 
[V:2] F,2E,D,/E,/ & B,,C,2G,, | 
[V:1] AGF2 & C>B,A,2 | 
[V:2] F,E,F,2 & A,,/B,,/C,D,2 | 
[V:1] A2BG & =B,/^C/D-D2- | 
[V:2] G,A,G,2 & E,F,G,B,, | 
[V:1] A2!fermata!D2 & D^CD2 | 
[V:2] F,/G,/A,/G,/^F,2 & A,,2!fermata!D,,2 | 
[V:1]  [K:D] [M:C|]z[AFD][AGE][AFD] [I:setbarnb 74]| 
[V:2]  [K:D] [M:C|][D,2D,,2][^C,^C,,][D,D,,] | 
[V:1] B2A2 & [G2D2][F2D2] | 
[V:2] G,,/A,,/B,,/C,/ D,/E,/F,/D,/ | 
[V:1] B>A G/F/G/B/ & F/^D/E/F/E2- | 
[V:2] B,4 & ^D,/B,,/C,/D,/E,=D, | 
[V:1] A>G F/E/F/G/ & E/C/D/E/ D/ z/z | 
[V:2] A,2-A,/ z/z & C,/A,,/B,,/C,/ D,/ z/z | 
[V:1] A2dc & F3A | 
[V:2] D3F & zD,/C,/ B,,/A,,/G,,/F,,/ | 
[V:1] B2A2 & [G2D2][F2D2] | 
[V:2] x4 & G,,/A,,/B,,/C,/D,=C, | 
[V:1] B>AGB & [F2^D2][EB,]G | 
[V:2] xxxE & B,,B,E,/D,/^C,/B,,/ | 
[V:1] AGFA & GD/E/DC | 
[V:2] CB,/A,/A,G, & A,,/^A,,/B,,/C,/D,E, | 
[V:1] A2BG & D2^DB, | 
[V:2] A,F,-F,G, & F,D,/=C,/B,,E,, | 
[V:1] A2!fermata!D2 & C2=D2 | 
[V:2] E,/F,/G,/A,/F,2 & A,,2!fermata!D,2 | 
[V:1] [M:C]z4 & z4 [I:setbarnb 84]| 
[V:2] [M:C]z4 & z/ A,,/A,,/A,,/B,,A,, | 
[V:1] z4 & z4 | 
[V:2] z4 & B,,/A,,/G,,/B,,/ A,,/G,,/F,,/E,,/ | 
[V:1] z4 & z4 | 
[V:2] z/ A,/A,/A,/B,A, & D,,F,,G,,F,, | 
[V:1] z4 & z4 | 
[V:2] B,/A,/G,/B,/ A,/G,/F, & G,,/A,,/B,,^C,D,/=C,/ | 
[V:1] z4 & z/ D/D/D/ED | 
[V:2] G,4- & B,,2=C,B,, | 
[V:1] z4 & E/D/=C/E/ D/C/B,/^C/ | 
[V:2] G,2F,G, & =C,/B,,/A,,/C,/D,E,/A,,/ | 
[V:1] z/ A/A/A/BA & D4- | 
[V:2] F,2G,F, & D,4- | 
[V:1] B/A/G/B/ A/G/F/G/ & D2ED/C/ | 
[V:2] G,/F,/E,/G,/A,2- & D,2C,D,/E,/ | 
[V:1] A/ z/zz2 & D/ z/zz/ D/G/F/ | 
[V:2] A,/ A,/D/C<B,A,/ & F,/ z/zz2 | 
[V:1] z/ B/e/d/ c/B/A/G/ & E2-E/=G/F/E/ | 
[V:2] G,^G,A,2 & z4 | 
[V:1] F3E & D>ED2- | 
[V:2] A,>^A,B,2 & z/ A,,/D,/C,/ B,,/A,,/G,,/^G,,/ | 
[V:1] F2!accent!E3/F/ & D2-D/B,/C | 
[V:2] A,/F,/G,/^G,/A,=G, & A,,4 | 
[V:1] D/!accent!A/!accent!A/!accent!A/!tenuto!B!tenuto!G & DC/D/-DE- | 
[V:2] F,G,/A,/G,B, & D,E,/F,/G,E,/D,/ | 
[V:1] A2D/ z/z & E/D/CD/ x/x | 
[V:2] A,2-A,/ z/z & C,/B,,/A,,/G,,/ F,,/.A,,/.A,,/.A,,/ | 
[V:1] z4 & z4 | 
[V:2] z4 & B,,G,,A,,2 | 
[V:1] D4- | 
[V:2] z/ [A,/F,/][A,/F,/][A,/F,/][B,G,][G,E,] & D,,4- | 
[V:1] D4- | 
[V:2] [A,2F,2][G,2E,2] & D,,4- | 
[V:1] !fermata!D4 ||  
[V:2] [F,4D,4] & !fermata!D,,4- ||  
[V:1] z4 & z4 | 
[V:2] z4 & D,,/E,,/F,,/A,,/ D,/E,/F,/A,/ | 
[V:1] x2d/e/f/a/- & z4 ||  
[V:2] D/E/F/A/x2 & z4 ||  
[V:1] [M:C]a4 & z[ge][fd][ec] | 
[V:2] [M:C]z4[K:clef=treble] | 
[V:1] b2a2 & f2f2 | 
[V:2] d2c2 & B2F2 | 
[V:1] bagb & dfe2- | 
[V:2] B2-B2 & G^DE=D | 
[V:1] a2d2 & e2d2 | 
[V:2] AGF2 & C2D2 | 
[V:1] B3e & BAGA | 
[V:2] GFEG- & z2zC | 
[V:1] A4 & A4 | 
[V:2] GF/E/F2[K:clef=bass] & D4 | 
[V:1] B,3C | 
[V:2] [B,G,][A,F,]G,A,- & z2G,2- | 
[V:1] !fermata!D4 | 
[V:2] [A,4D,4] & G,F,/E,/!fermata!F,2 | 
[V:1] [A,2F,2][A,F,][A,F,] | 
[V:2] [D,4D,,4]- | 
[V:1] [_B,2G,2][A,2F,2] | 
[V:2] [D,4D,,4] | 
[V:1] D2DE & A,^A,B,C | 
[V:2] D,2-D,A,- & F,,2G,,A,, | 
[V:1] F2G^G & D4- | 
[V:2] A,2G,=F, & D,=C,B,,_B,, | 
[V:1] A^ABc & D3G | 
[V:2] ^F,2G,A, & A,,4 | 
[V:1] d3[e_B] & F2G2 | 
[V:2] A,^A,B,C & D,4 | 
[V:1] f4- & [A4F4]- | 
[V:2] !accent!D!accent!B,!accent!=A,!accent!F, & D,B,,=A,,F,, | 
[V:1] !fermata!f4 & [A4F4] |]  
[V:2] D,4 & !fermata!D,,4 |]  


